X:1
T:7 Mélodies, Op.2
T:La dernière feuille
T:4. La dernière feuille
T:Ernest Chausson
T:Theophile Gautier
T:7 Mélodies, Op.2
T:Creative Commons copyright waiver (CC0 1.0 Universal) 
T:Creative Commons copyright waiver (CC0 1.0 Universal) 
T:Creative Commons copyright waiver (CC0 1.0 Universal) 
C:Ernest Chausson
Z:Theophile Gautier
Z:Creative Commons copyright waiver (CC0 1.0 Universal)
L:1/8
M:2/4
K:D
V:1 treble nm="Voice"
V:1
 z4 | z4 | FF ^GG | BA =GF | F2 ^E z | z4 | cc ^dd | c2 FF | ^G2 z2 | ^GG ^^FF | ^G2 BB | F4 | %12
w: ||Dans la for- êt|chau- ve et rouil-|lé- e||Il ne res- te|plus au ra-|meau|Qu'u ne pau- vre|feuille ou- bli-|é-|
 E2 z2 | c2 ^GG | ^E4 | C2 CC | ^G2- G z | z4 | ^G3 G | B2 =G2 | F2 F>F | F2- F z | z B BB | d3 d | %24
w: e,|Rien qu'u- ne|feuille|et qu'un oi-|seau *||Il ne|res- te|plus en mon|a- me|Qu'un seul a-|mour pour|
 dc c2- | c2 z2 | B3 F | G2 E2 | BB z F | G2 G2 | z d dd | ^E4- | ED CD | C2 z2 | z F GG | F2 z2 | %36
w: y chan- ter;||Mais le|vent d'au-|tom- ne, qui|bra- me,|Ne per- met|pas|* de l'é- cou-|ter.|L'ois- eau s'en|va,|
 z D CB, | B,2 B,2 | z B BB | B4- | BB BB | B4- | B z z2 | z F GG | FF BG | F2 F2- | F2 G2 | F4- | %48
w: la feuil- le|tom- be|l'am- our s'ét-|eint,|* car c'est l'hi-|ver.||Pe- tit oi-|seau, viens sur ma|tom- be|* Chan-|ter|
 F2 G2 | F2 G2 | F2 G2 | F4- | F4- | F2 z2 |] %54
w: * quand|l'ar- bre|se- ra|vert.|||

